; generated by Slic3r 1.2.9 on 2017-04-05 at 08:22:08

; external perimeters extrusion width = 0.50mm
; perimeters extrusion width = 0.58mm
; infill extrusion width = 0.58mm
; solid infill extrusion width = 0.58mm
; top infill extrusion width = 0.58mm

M107
M190 S65 ; set bed temperature
M104 S205 ; set temperature
G28 ; home all axes
G1 Z5 F5000 ; lift nozzle

M109 S205 ; wait for temperature to be reached
G21 ; set units to millimeters
G90 ; use absolute coordinates
M82 ; use absolute distances for extrusion
G92 E0
G1 Z0.500 F7800.000
G1 E-2.00000 F2400.00000
G92 E0
G1 X-6.161 Y-26.153 F7800.000
G1 E2.00000 F2400.00000
G1 X47.085 Y-38.696 E12.15134 F1800.000
G1 X48.092 Y-38.865 E12.34084
G1 X49.074 Y-38.927 E12.52334
G1 X49.431 Y-38.924 E12.58953
G1 X50.411 Y-38.847 E12.77203 F1800.000
G1 X50.764 Y-38.793 E12.83822
G1 X51.723 Y-38.576 E13.02068
G1 X52.064 Y-38.473 E13.08692
G1 X52.983 Y-38.122 E13.26940
G1 X53.306 Y-37.971 E13.33561
G1 X54.166 Y-37.493 E13.51810
G1 X54.464 Y-37.298 E13.58429
G1 X55.247 Y-36.703 E13.76675
G1 X55.514 Y-36.467 E13.83294
G1 X56.205 Y-35.766 E14.01554
G1 X56.436 Y-35.494 E14.08173
G1 X57.019 Y-34.702 E14.26417
G1 X57.209 Y-34.401 E14.33036
G1 X57.674 Y-33.534 E14.51284
G1 X57.819 Y-33.208 E14.57904
G1 X58.156 Y-32.284 E14.76153
G1 X58.254 Y-31.941 E14.82777
G1 X58.455 Y-30.979 E15.01018
G1 X58.503 Y-30.625 E15.07637
G1 X58.565 Y-29.698 E15.24880
G1 X58.565 Y29.698 E26.27109
G1 X58.503 Y30.625 E26.44351
G1 X58.455 Y30.979 E26.50978
G1 X58.253 Y31.941 E26.69217
G1 X58.156 Y32.284 E26.75836
G1 X57.819 Y33.208 E26.94085
G1 X57.674 Y33.534 E27.00704
G1 X57.209 Y34.401 E27.18954
G1 X57.019 Y34.703 E27.25577
G1 X56.436 Y35.494 E27.43815
G1 X56.228 Y35.738 E27.49772
G1 X55.514 Y36.467 E27.68693
G1 X55.246 Y36.703 E27.75320
G1 X54.464 Y37.298 E27.93558
G1 X54.166 Y37.493 E28.00178
G1 X53.306 Y37.971 E28.18427
G1 X52.983 Y38.122 E28.25046
G1 X52.064 Y38.473 E28.43298
G1 X51.723 Y38.576 E28.49918
G1 X50.764 Y38.793 E28.68167
G1 X50.411 Y38.847 E28.74786
G1 X49.431 Y38.924 E28.93034
G1 X49.074 Y38.927 E28.99653
G1 X48.092 Y38.865 E29.17904
G1 X47.085 Y38.696 E29.36853
G1 X-50.236 Y15.771 E47.92278
G1 X-51.135 Y15.508 E48.09655
G1 X-51.846 Y15.242 E48.23745
G1 X-52.249 Y15.065 E48.31922
G1 X-52.965 Y14.700 E48.46826
G1 X-53.308 Y14.501 E48.54189
G1 X-53.944 Y14.086 E48.68278
G1 X-54.299 Y13.825 E48.76455
G1 X-54.885 Y13.342 E48.90547
G1 X-55.209 Y13.044 E48.98724
G1 X-55.738 Y12.499 E49.12812
G1 X-56.028 Y12.167 E49.20990
G1 X-56.494 Y11.568 E49.35080
G1 X-56.745 Y11.206 E49.43259
G1 X-57.143 Y10.559 E49.57351
G1 X-57.352 Y10.171 E49.65528
G1 X-57.676 Y9.485 E49.79615
G1 X-57.842 Y9.076 E49.87792
G1 X-58.089 Y8.358 E50.01881
G1 X-58.209 Y7.934 E50.10060
G1 X-58.375 Y7.193 E50.24154
G1 X-58.447 Y6.758 E50.32331
G1 X-58.531 Y6.004 E50.46418
G1 X-58.565 Y5.184 E50.61642
G1 X-58.565 Y-5.184 E52.54051
G1 X-58.531 Y-6.004 E52.69276
G1 X-58.447 Y-6.758 E52.83359
G1 X-58.375 Y-7.193 E52.91540
G1 X-58.209 Y-7.934 E53.05632
G1 X-58.089 Y-8.358 E53.13810
G1 X-57.842 Y-9.076 E53.27901
G1 X-57.676 Y-9.485 E53.36078
G1 X-57.353 Y-10.171 E53.50165
G1 X-57.143 Y-10.559 E53.58342
G1 X-56.720 Y-11.242 E53.73248
G1 X-56.494 Y-11.568 E53.80610
G1 X-56.028 Y-12.167 E53.94702
G1 X-55.738 Y-12.499 E54.02879
G1 X-55.209 Y-13.044 E54.16968
G1 X-54.885 Y-13.342 E54.25146
G1 X-54.299 Y-13.825 E54.39237
G1 X-53.944 Y-14.086 E54.47414
G1 X-53.308 Y-14.501 E54.61503
G1 X-52.927 Y-14.722 E54.69681
G1 X-52.249 Y-15.065 E54.83770
G1 X-51.846 Y-15.242 E54.91949
G1 X-51.135 Y-15.508 E55.06039
G1 X-50.236 Y-15.771 E55.23415
G1 X-6.234 Y-26.136 E63.62314
G1 E61.62314 F2400.00000
G92 E0
G1 X30.581 Y-23.000 F7800.000
G1 E2.00000 F2400.00000
G1 X30.775 Y-22.521 E2.09589 F1800.000
G1 X30.446 Y-22.373 E2.16277
G1 X29.387 Y-21.837 E2.38312
G1 X28.354 Y-21.250 E2.60347
G1 X27.351 Y-20.615 E2.82382
G1 X26.380 Y-19.932 E3.04417
G1 X25.442 Y-19.204 E3.26452
G1 X24.540 Y-18.431 E3.48487
G1 X23.677 Y-17.616 E3.70521
G1 X22.853 Y-16.761 E3.92556
G1 X22.071 Y-15.867 E4.14591
G1 X21.333 Y-14.937 E4.36626
G1 X20.640 Y-13.972 E4.58661
G1 X19.995 Y-12.976 E4.80695
G1 X19.398 Y-11.950 E5.02731
G1 X18.850 Y-10.896 E5.24765
G1 X18.354 Y-9.817 E5.46800
G1 X17.910 Y-8.716 E5.68835
G1 X17.519 Y-7.595 E5.90870
G1 X17.182 Y-6.456 E6.12905
G1 X16.901 Y-5.303 E6.34939
G1 X16.674 Y-4.137 E6.56974
G1 X16.504 Y-2.962 E6.79009
G1 X16.391 Y-1.780 E7.01044
G1 X16.334 Y-0.594 E7.23079
G1 X16.334 Y0.594 E7.45114
G1 X16.391 Y1.780 E7.67149
G1 X16.504 Y2.962 E7.89184
G1 X16.674 Y4.137 E8.11219
G1 X16.901 Y5.303 E8.33253
G1 X17.182 Y6.456 E8.55288
G1 X17.519 Y7.595 E8.77323
G1 X17.910 Y8.716 E8.99358
G1 X18.354 Y9.817 E9.21393
G1 X18.850 Y10.896 E9.43428
G1 X19.398 Y11.950 E9.65462
G1 X19.995 Y12.976 E9.87497
G1 X20.640 Y13.972 E10.09532
G1 X21.333 Y14.937 E10.31567
G1 X22.071 Y15.867 E10.53602
G1 X22.853 Y16.761 E10.75637
G1 X23.677 Y17.616 E10.97672
G1 X24.540 Y18.431 E11.19706
G1 X25.442 Y19.204 E11.41741
G1 X26.380 Y19.932 E11.63776
G1 X27.259 Y20.550 E11.83718
G1 X28.350 Y21.248 E12.07751
G1 X29.387 Y21.837 E12.29879
G1 X30.446 Y22.373 E12.51914
G1 X30.775 Y22.521 E12.58602
G1 X30.581 Y23.000 E12.68191
G1 X-25.151 Y2.715 E23.68793
G1 X-34.022 Y2.715 E25.33397
G1 X-47.101 Y6.802 E27.87693
G1 X-47.532 Y6.890 E27.95847
G1 X-47.720 Y6.895 E27.99345
G1 X-48.093 Y6.843 E28.06330
G1 X-48.446 Y6.711 E28.13316
G1 X-48.609 Y6.617 E28.16814
G1 X-48.761 Y6.505 E28.20312
G1 X-49.023 Y6.235 E28.27297
G1 X-49.131 Y6.080 E28.30795
G1 X-49.291 Y5.740 E28.37781
G1 X-49.373 Y5.372 E28.44766
G1 X-49.387 Y5.121 E28.49435
G1 X-49.387 Y-5.121 E30.39505
G1 X-49.373 Y-5.372 E30.44174
G1 X-49.291 Y-5.740 E30.51159
G1 X-49.131 Y-6.080 E30.58145
G1 X-49.023 Y-6.235 E30.61642
G1 X-48.769 Y-6.497 E30.68415
G1 X-48.581 Y-6.633 E30.72726
G1 X-48.273 Y-6.787 E30.79108
G1 X-48.093 Y-6.843 E30.82606
G1 X-47.720 Y-6.895 E30.89591
G1 X-47.345 Y-6.864 E30.96576
G1 X-47.101 Y-6.802 E31.01245
G1 X-34.022 Y-2.715 E33.55541
G1 X-25.151 Y-2.715 E35.20144
G1 X30.510 Y-22.974 E46.19355
G1 X49.239 Y-30.640 F7800.000
G1 X49.430 Y-30.614 E46.22933 F1800.000
G1 X49.572 Y-30.571 E46.25687
G1 X49.846 Y-30.418 E46.31517
G1 X49.964 Y-30.314 E46.34439
G1 X50.151 Y-30.061 E46.40269
G1 X50.258 Y-29.766 E46.46100
G1 X50.278 Y-29.452 E46.51929
G1 X50.209 Y-29.146 E46.57758
G1 X50.056 Y-28.871 E46.63588
G1 X49.832 Y-28.651 E46.69419
G1 X49.699 Y-28.567 E46.72341
G1 X49.510 Y-28.482 E46.76188
G1 X32.925 Y-22.446 E50.03696
G1 X31.875 Y-22.035 E50.24628
G1 X30.830 Y-21.567 E50.45869
G1 X29.809 Y-21.050 E50.67110
G1 X28.814 Y-20.485 E50.88351
G1 X27.847 Y-19.872 E51.09592
G1 X26.911 Y-19.214 E51.30833
G1 X26.007 Y-18.512 E51.52074
G1 X25.137 Y-17.767 E51.73315
G1 X24.305 Y-16.981 E51.94556
G1 X23.511 Y-16.157 E52.15797
G1 X22.757 Y-15.295 E52.37038
G1 X22.046 Y-14.399 E52.58279
G1 X21.378 Y-13.469 E52.79520
G1 X20.756 Y-12.509 E53.00761
G1 X20.180 Y-11.519 E53.22002
G1 X19.652 Y-10.503 E53.43243
G1 X19.174 Y-9.464 E53.64484
G1 X18.746 Y-8.402 E53.85725
G1 X18.369 Y-7.321 E54.06966
G1 X18.045 Y-6.223 E54.28207
G1 X17.773 Y-5.112 E54.49448
G1 X17.555 Y-3.988 E54.70689
G1 X17.391 Y-2.855 E54.91930
G1 X17.281 Y-1.716 E55.13171
G1 X17.227 Y-0.572 E55.34412
G1 X17.227 Y0.572 E55.55653
G1 X17.281 Y1.716 E55.76894
G1 X17.391 Y2.855 E55.98135
G1 X17.555 Y3.988 E56.19376
G1 X17.773 Y5.112 E56.40617
G1 X18.045 Y6.223 E56.61858
G1 X18.369 Y7.321 E56.83099
G1 X18.746 Y8.402 E57.04340
G1 X19.174 Y9.464 E57.25581
G1 X19.652 Y10.503 E57.46822
G1 X20.180 Y11.519 E57.68063
G1 X20.756 Y12.509 E57.89304
G1 X21.378 Y13.469 E58.10545
G1 X22.046 Y14.399 E58.31786
G1 X22.757 Y15.295 E58.53027
G1 X23.511 Y16.157 E58.74268
G1 X24.305 Y16.981 E58.95509
G1 X25.137 Y17.767 E59.16750
G1 X26.007 Y18.512 E59.37991
G1 X26.911 Y19.214 E59.59232
G1 X27.756 Y19.808 E59.78417
G1 X28.811 Y20.483 E60.01656
G1 X29.809 Y21.050 E60.22953
G1 X30.830 Y21.567 E60.44195
G1 X31.875 Y22.035 E60.65435
G1 X32.925 Y22.446 E60.86367
G1 X49.510 Y28.482 E64.13875
G1 X49.699 Y28.567 E64.17723
G1 X49.952 Y28.753 E64.23551
G1 X50.142 Y29.003 E64.29382
G1 X50.254 Y29.297 E64.35212
G1 X50.279 Y29.610 E64.41042
G1 X50.215 Y29.917 E64.46872
G1 X50.067 Y30.194 E64.52702
G1 X49.846 Y30.418 E64.58531
G1 X49.572 Y30.571 E64.64361
G1 X49.421 Y30.616 E64.67284
G1 X49.108 Y30.641 E64.73113
G1 X48.952 Y30.620 E64.76036
G1 X48.752 Y30.563 E64.79884
G1 X-25.309 Y3.607 E79.42443
G1 X-33.885 Y3.607 E81.01597
G1 X-46.858 Y7.661 E83.53822
G1 X-47.174 Y7.741 E83.59861
G1 X-47.458 Y7.781 E83.65186
G1 X-47.745 Y7.788 E83.70512
G1 X-48.031 Y7.765 E83.75838
G1 X-48.313 Y7.710 E83.81163
G1 X-48.587 Y7.624 E83.86489
G1 X-48.849 Y7.509 E83.91815
G1 X-49.098 Y7.365 E83.97140
G1 X-49.329 Y7.195 E84.02466
G1 X-49.540 Y7.001 E84.07792
G1 X-49.729 Y6.784 E84.13117
G1 X-49.892 Y6.548 E84.18443
G1 X-50.029 Y6.296 E84.23768
G1 X-50.137 Y6.030 E84.29095
G1 X-50.215 Y5.754 E84.34420
G1 X-50.262 Y5.471 E84.39746
G1 X-50.280 Y5.146 E84.45785
G1 X-50.280 Y-5.146 E86.36768
G1 X-50.262 Y-5.471 E86.42808
G1 X-50.215 Y-5.754 E86.48133
G1 X-50.137 Y-6.030 E86.53459
G1 X-50.029 Y-6.296 E86.58785
G1 X-49.892 Y-6.548 E86.64110
G1 X-49.729 Y-6.784 E86.69436
G1 X-49.540 Y-7.001 E86.74761
G1 X-49.334 Y-7.190 E86.79957
G1 X-49.066 Y-7.384 E86.86096
G1 X-48.849 Y-7.509 E86.90734
G1 X-48.587 Y-7.624 E86.96060
G1 X-48.313 Y-7.710 E87.01385
G1 X-48.031 Y-7.765 E87.06711
G1 X-47.745 Y-7.788 E87.12037
G1 X-47.458 Y-7.781 E87.17362
G1 X-47.174 Y-7.741 E87.22688
G1 X-46.858 Y-7.661 E87.28727
G1 X-33.885 Y-3.607 E89.80951
G1 X-25.309 Y-3.607 E91.40105
G1 X48.752 Y-30.563 E106.02665
G1 X48.952 Y-30.620 E106.06513
G1 X49.164 Y-30.641 E106.10464
G1 X49.246 Y-31.533 F7800.000
G1 X49.304 Y-31.533 E106.11541 F1800.000
G1 X49.621 Y-31.489 E106.17489 F1800.000
G1 X49.891 Y-31.407 E106.22721
G1 X50.150 Y-31.286 E106.28013
G1 X50.388 Y-31.130 E106.33305
G1 X50.602 Y-30.942 E106.38597
G1 X50.787 Y-30.725 E106.43888
G1 X50.940 Y-30.484 E106.49180
G1 X51.056 Y-30.223 E106.54473
G1 X51.134 Y-29.949 E106.59765
G1 X51.172 Y-29.667 E106.65057
G1 X51.170 Y-29.381 E106.70349
G1 X51.127 Y-29.099 E106.75640
G1 X51.045 Y-28.827 E106.80932
G1 X50.924 Y-28.568 E106.86224
G1 X50.768 Y-28.329 E106.91517
G1 X50.580 Y-28.115 E106.96809
G1 X50.363 Y-27.930 E107.02100
G1 X50.122 Y-27.778 E107.07392
G1 X49.845 Y-27.654 E107.13017
G1 X33.241 Y-21.611 E110.40918
G1 X32.220 Y-21.212 E110.61254
G1 X31.215 Y-20.761 E110.81701
G1 X30.232 Y-20.263 E111.02148
G1 X29.274 Y-19.719 E111.22595
G1 X28.343 Y-19.129 E111.43043
G1 X27.441 Y-18.496 E111.63490
G1 X26.571 Y-17.820 E111.83937
G1 X25.734 Y-17.103 E112.04384
G1 X24.933 Y-16.347 E112.24831
G1 X24.169 Y-15.553 E112.45278
G1 X23.443 Y-14.724 E112.65725
G1 X22.758 Y-13.861 E112.86173
G1 X22.116 Y-12.966 E113.06620
G1 X21.516 Y-12.041 E113.27067
G1 X20.962 Y-11.089 E113.47514
G1 X20.454 Y-10.111 E113.67961
G1 X19.994 Y-9.110 E113.88409
G1 X19.582 Y-8.088 E114.08856
G1 X19.219 Y-7.048 E114.29303
G1 X18.907 Y-5.991 E114.49750
G1 X18.645 Y-4.920 E114.70197
G1 X18.435 Y-3.839 E114.90644
G1 X18.278 Y-2.748 E115.11092
G1 X18.172 Y-1.652 E115.31539
G1 X18.119 Y-0.551 E115.51986
G1 X18.119 Y0.551 E115.72433
G1 X18.172 Y1.652 E115.92880
G1 X18.278 Y2.748 E116.13328
G1 X18.435 Y3.839 E116.33775
G1 X18.645 Y4.920 E116.54222
G1 X18.907 Y5.991 E116.74669
G1 X19.219 Y7.048 E116.95116
G1 X19.582 Y8.088 E117.15563
G1 X19.994 Y9.110 E117.36011
G1 X20.454 Y10.111 E117.56458
G1 X20.962 Y11.089 E117.76905
G1 X21.516 Y12.041 E117.97352
G1 X22.116 Y12.966 E118.17799
G1 X22.758 Y13.861 E118.38247
G1 X23.443 Y14.724 E118.58694
G1 X24.169 Y15.553 E118.79141
G1 X24.933 Y16.347 E118.99588
G1 X25.734 Y17.103 E119.20035
G1 X26.571 Y17.820 E119.40482
G1 X27.441 Y18.496 E119.60930
G1 X28.254 Y19.067 E119.79356
G1 X29.273 Y19.718 E120.01802
G1 X30.232 Y20.263 E120.22269
G1 X31.215 Y20.761 E120.42716
G1 X32.220 Y21.212 E120.63163
G1 X33.241 Y21.611 E120.83499
G1 X49.845 Y27.654 E124.11401
G1 X50.122 Y27.778 E124.17025
G1 X50.363 Y27.930 E124.22317
G1 X50.580 Y28.115 E124.27608
G1 X50.768 Y28.329 E124.32901
G1 X50.924 Y28.568 E124.38193
G1 X51.045 Y28.827 E124.43485
G1 X51.127 Y29.099 E124.48777
G1 X51.170 Y29.381 E124.54069
G1 X51.172 Y29.667 E124.59361
G1 X51.134 Y29.949 E124.64652
G1 X51.056 Y30.223 E124.69945
G1 X50.940 Y30.484 E124.75237
G1 X50.787 Y30.725 E124.80529
G1 X50.602 Y30.942 E124.85820
G1 X50.388 Y31.130 E124.91112
G1 X50.150 Y31.286 E124.96405
G1 X49.891 Y31.407 E125.01696
G1 X49.618 Y31.489 E125.06989
G1 X49.336 Y31.532 E125.12280
G1 X49.051 Y31.535 E125.17573
G1 X48.768 Y31.496 E125.22864
G1 X48.477 Y31.413 E125.28489
G1 X-25.466 Y4.500 E139.88719
G1 X-33.749 Y4.500 E141.42424
G1 X-46.616 Y8.521 E143.92577
G1 X-47.003 Y8.619 E143.99986
G1 X-47.385 Y8.672 E144.07140
G1 X-47.770 Y8.682 E144.14293
G1 X-48.154 Y8.650 E144.21446
G1 X-48.532 Y8.576 E144.28600
G1 X-48.900 Y8.461 E144.35753
G1 X-49.253 Y8.306 E144.42906
G1 X-49.587 Y8.113 E144.50060
G1 X-49.898 Y7.885 E144.57213
G1 X-50.181 Y7.624 E144.64367
G1 X-50.434 Y7.333 E144.71520
G1 X-50.654 Y7.016 E144.78673
G1 X-50.837 Y6.677 E144.85826
G1 X-50.982 Y6.320 E144.92980
G1 X-51.087 Y5.949 E145.00133
G1 X-51.151 Y5.569 E145.07287
G1 X-51.173 Y5.170 E145.14696
G1 X-51.173 Y-5.170 E147.06593
G1 X-51.151 Y-5.569 E147.14002
G1 X-51.087 Y-5.949 E147.21156
G1 X-50.982 Y-6.320 E147.28309
G1 X-50.837 Y-6.677 E147.35463
G1 X-50.654 Y-7.016 E147.42616
G1 X-50.434 Y-7.333 E147.49769
G1 X-50.181 Y-7.624 E147.56923
G1 X-49.899 Y-7.883 E147.64029
G1 X-49.551 Y-8.134 E147.71996
G1 X-49.253 Y-8.306 E147.78378
G1 X-48.900 Y-8.461 E147.85531
G1 X-48.532 Y-8.576 E147.92685
G1 X-48.154 Y-8.650 E147.99838
G1 X-47.770 Y-8.682 E148.06992
G1 X-47.385 Y-8.672 E148.14145
G1 X-47.003 Y-8.619 E148.21298
G1 X-46.616 Y-8.521 E148.28708
G1 X-33.749 Y-4.500 E150.78860
G1 X-25.466 Y-4.500 E152.32565
G1 X48.477 Y-31.413 E166.92795
G1 X48.768 Y-31.496 E166.98420
G1 X49.171 Y-31.534 E167.05918
G1 X49.276 Y-31.483 F7800.000
G1 X49.826 Y-29.631 F7800.000
G1 X49.172 Y-29.538 E167.31917 F1800.000
G1 X32.542 Y-23.485 E174.28216
G1 X31.088 Y-22.936 E174.89339
G1 X27.892 Y-21.517 F7800.000
G1 X26.159 Y-20.639 E175.25400 F1800.000
G1 X26.156 Y-20.644 F7800.000
G1 X24.362 Y-19.638 E176.06320 F1800.000
G1 X23.742 Y-19.369 F7800.000
G1 X23.292 Y-19.819 E176.18142 F1800.000
G1 X22.366 Y-19.482 E176.36456
G1 X23.629 Y-18.219 E176.69632
G1 X22.996 Y-17.588 E176.86230
G1 X21.439 Y-19.144 E177.27112
G1 X20.513 Y-18.807 E177.45425
G1 X22.382 Y-16.938 E177.94517
G1 X21.792 Y-16.264 E178.11152
G1 X19.586 Y-18.470 E178.69092
G1 X18.660 Y-18.133 E178.87405
G1 X21.228 Y-15.565 E179.54861
G1 X20.683 Y-14.846 E179.71617
G1 X17.734 Y-17.796 E180.49106
G1 X16.807 Y-17.458 E180.67420
G1 X20.159 Y-14.106 E181.55471
G1 X19.662 Y-13.340 E181.72443
G1 X15.881 Y-17.121 E182.71780
G1 X14.954 Y-16.784 E182.90093
G1 X19.190 Y-12.548 E184.01373
G1 X18.741 Y-11.734 E184.18646
G1 X14.028 Y-16.447 E185.42450
G1 X13.101 Y-16.110 E185.60763
G1 X18.314 Y-10.897 E186.97693
G1 X17.916 Y-10.031 E187.15389
G1 X12.175 Y-15.772 E188.66196
G1 X11.248 Y-15.435 E188.84509
G1 X17.548 Y-9.135 E190.49997
G1 X17.207 Y-8.212 E190.68271
G1 X10.322 Y-15.098 E192.49144
G1 X9.395 Y-14.761 E192.67457
G1 X16.895 Y-7.261 E194.64470
G1 X16.614 Y-6.278 E194.83453
G1 X8.469 Y-14.423 E196.97416
G1 X7.542 Y-14.086 E197.15730
G1 X16.366 Y-5.262 E199.47524
G1 X16.161 Y-4.204 E199.67549
G1 X6.616 Y-13.749 E202.18285
G1 X5.689 Y-13.412 E202.36599
G1 X15.996 Y-3.106 E205.07325
G1 X15.874 Y-1.964 E205.28657
G1 X4.763 Y-13.075 E208.20524
G1 X3.837 Y-12.737 E208.38837
G1 X15.801 Y-0.773 E211.53135
G1 X15.785 Y0.474 E211.76297
G1 X2.910 Y-12.400 E215.14491
G1 X1.984 Y-12.063 E215.32804
G1 X15.832 Y1.785 E218.96574
G1 X15.953 Y3.170 E219.22407
G1 X1.057 Y-11.726 E223.13712
G1 X0.131 Y-11.389 E223.32025
G1 X16.175 Y4.656 E227.53494
G1 X16.518 Y6.262 E227.83995
G1 X-0.796 Y-11.051 E232.38794
G1 X-1.722 Y-10.714 E232.57107
G1 X17.006 Y8.014 E237.49079
G1 X17.755 Y10.026 F7800.000
G1 X-2.649 Y-10.377 E242.85046 F1800.000
G1 X-3.575 Y-10.040 E243.03360
G1 X18.917 Y12.453 E248.94207
